<?xml version="1.0" encoding="UTF-8"?>
<map version="1.10" tiledversion="1.11.0" orientation="orthogonal" renderorder="right-down" width="24" height="24" tilewidth="16" tileheight="16" infinite="0" nextlayerid="7" nextobjectid="24">
 <properties>
  <property name="defaultPos" value="12,11"/>
  <property name="music" value="res/audio/music/newworld.mp3"/>
  <property name="music_speed" type="float" value="0.9"/>
 </properties>
 <tileset firstgid="1" source="entity/doors.tsx"/>
 <tileset firstgid="16" source="entity/nexus_doors.tsx"/>
 <tileset firstgid="46" source="entity/misc_entities.tsx"/>
 <tileset firstgid="74" source="bedroom.tsx"/>
 <imagelayer id="2" name="Background" offsetx="48" offsety="54">
  <image source="../textures/image/nexus_bg_4.png" width="272" height="272"/>
  <properties>
   <property name="draw" type="bool" value="true"/>
   <property name="looping" type="bool" value="false"/>
   <property name="x" type="int" value="48"/>
   <property name="y" type="int" value="54"/>
  </properties>
 </imagelayer>
 <layer id="6" name="dummy" width="24" height="24">
  <data encoding="csv">
0,0,0,0,0,0,0,0,0,0,0,0,0,0,0,0,0,0,0,0,0,0,0,0,
0,0,0,0,0,0,0,0,0,0,0,0,0,0,0,0,0,0,0,0,0,0,0,0,
0,0,0,0,0,0,0,0,0,0,0,0,0,0,0,0,0,0,0,0,0,0,0,0,
0,0,0,0,0,0,0,0,0,0,0,0,0,0,0,0,0,0,0,0,0,0,0,0,
0,0,0,0,0,0,0,0,0,0,0,0,0,0,0,0,0,0,0,0,0,0,0,0,
0,0,0,0,0,0,0,0,0,0,0,0,0,0,0,0,0,0,0,0,0,0,0,0,
0,0,0,0,0,0,0,0,0,0,0,0,0,0,0,0,0,0,0,0,0,0,0,0,
0,0,0,0,0,0,0,0,0,0,0,0,0,0,0,0,0,0,0,0,0,0,0,0,
0,0,0,0,0,0,0,0,0,0,0,0,0,0,0,0,0,0,0,0,0,0,0,0,
0,0,0,0,0,0,0,0,0,0,0,0,0,0,0,0,0,0,0,0,0,0,0,0,
0,0,0,0,0,0,0,0,0,0,0,0,0,0,0,0,0,0,0,0,0,0,0,0,
0,0,0,0,0,0,0,0,0,0,0,0,0,0,0,0,0,0,0,0,0,0,0,0,
0,0,0,0,0,0,0,0,0,0,0,0,0,0,0,0,0,0,0,0,0,0,0,0,
0,0,0,0,0,0,0,0,0,0,0,0,0,0,0,0,0,0,0,0,0,0,0,0,
0,0,0,0,0,0,0,0,0,0,0,0,0,0,0,0,0,0,0,0,0,0,0,0,
0,0,0,0,0,0,0,0,0,0,0,0,0,0,0,0,0,0,0,0,0,0,0,0,
0,0,0,0,0,0,0,0,0,0,0,0,0,0,0,0,0,0,0,0,0,0,0,0,
0,0,0,0,0,0,0,0,0,0,0,0,0,0,0,0,0,0,0,0,0,0,0,0,
0,0,0,0,0,0,0,0,0,0,0,0,0,0,0,0,0,0,0,0,0,0,0,0,
0,0,0,0,0,0,0,0,0,0,0,0,0,0,0,0,0,0,0,0,0,0,0,0,
0,0,0,0,0,0,0,0,0,0,0,0,0,0,0,0,0,0,0,0,0,0,0,0,
0,0,0,0,0,0,0,0,0,0,0,0,0,0,0,0,0,0,0,0,0,0,0,0,
0,0,0,0,0,0,0,0,0,0,0,0,0,0,0,0,0,0,0,0,0,0,0,0,
0,0,0,0,0,0,0,0,0,0,0,0,0,0,0,0,0,0,0,0,0,0,0,0
</data>
 </layer>
 <objectgroup id="3" name="Objects">
  <object id="10" gid="11" x="176" y="192" width="16" height="32">
   <properties>
    <property name="collider">{
	&quot;x&quot;: 0,
	&quot;y&quot;: 16,
	&quot;w&quot;: 16,
	&quot;h&quot;: 16
}</property>
    <property name="file" value="res/data/entity/entrances/bedroom_door.json"/>
    <property name="height" type="int" value="0"/>
    <property name="solid" type="bool" value="true"/>
    <property name="walk_behind" type="bool" value="true"/>
    <property name="warp_map" value="dream_bedroom.tmx"/>
    <property name="warp_x" type="int" value="6"/>
    <property name="warp_y" type="int" value="4"/>
   </properties>
  </object>
  <object id="20" gid="43" x="80" y="96" width="16" height="32">
   <properties>
    <property name="collider">{
	&quot;x&quot;: 0,
	&quot;y&quot;: 16,
	&quot;w&quot;: 16,
	&quot;h&quot;: 16
}</property>
    <property name="height" type="int" value="0"/>
    <property name="meta">{
	&quot;warp_map&quot;: &quot;scrapyard.tmx&quot;,
	&quot;warp_x&quot;: 43,
	&quot;warp_y&quot;: 22,
	&quot;start_frame&quot;: 27
}</property>
    <property name="script" value="nexus_door.lua"/>
    <property name="solid" type="bool" value="true"/>
    <property name="walk_behind" type="bool" value="true"/>
   </properties>
  </object>
  <object id="21" gid="40" x="80" y="288" width="16" height="32">
   <properties>
    <property name="collider">{
	&quot;x&quot;: 0,
	&quot;y&quot;: 16,
	&quot;w&quot;: 16,
	&quot;h&quot;: 16
}</property>
    <property name="height" type="int" value="0"/>
    <property name="meta">{
	&quot;warp_map&quot;: &quot;paranoia.tmx&quot;,
	&quot;warp_x&quot;: 26,
	&quot;warp_y&quot;: 22,
	&quot;start_frame&quot;: 24
}</property>
    <property name="script" value="nexus_door.lua"/>
    <property name="solid" type="bool" value="true"/>
    <property name="walk_behind" type="bool" value="true"/>
   </properties>
  </object>
  <object id="22" gid="22" x="272" y="288" width="16" height="32">
   <properties>
    <property name="collider">{
	&quot;x&quot;: 0,
	&quot;y&quot;: 16,
	&quot;w&quot;: 16,
	&quot;h&quot;: 16
}</property>
    <property name="height" type="int" value="0"/>
    <property name="meta">{
	&quot;warp_map&quot;: &quot;flags.tmx&quot;,
	&quot;warp_x&quot;: 14,
	&quot;warp_y&quot;: 6,
	&quot;start_frame&quot;: 6
}</property>
    <property name="script" value="nexus_door.lua"/>
    <property name="solid" type="bool" value="true"/>
    <property name="walk_behind" type="bool" value="true"/>
   </properties>
  </object>
  <object id="23" gid="31" x="272" y="96" width="16" height="32">
   <properties>
    <property name="collider">{
	&quot;x&quot;: 0,
	&quot;y&quot;: 16,
	&quot;w&quot;: 16,
	&quot;h&quot;: 16
}</property>
    <property name="height" type="int" value="0"/>
    <property name="meta">{
	&quot;warp_map&quot;: &quot;sticks.tmx&quot;,
	&quot;warp_x&quot;: 46,
	&quot;warp_y&quot;: 19,
	&quot;start_frame&quot;: 15
}</property>
    <property name="script" value="nexus_door.lua"/>
    <property name="solid" type="bool" value="true"/>
    <property name="walk_behind" type="bool" value="true"/>
   </properties>
  </object>
 </objectgroup>
</map>
