<?xml version="1.0" encoding="UTF-8"?>
<map version="1.10" tiledversion="1.11.0" orientation="orthogonal" renderorder="right-down" width="20" height="64" tilewidth="16" tileheight="16" infinite="0" nextlayerid="9" nextobjectid="1">
 <properties>
  <property name="clampCamera" type="bool" value="true"/>
  <property name="edges">{
	&quot;down&quot;: {
		&quot;type&quot;: &quot;warp&quot;,
		&quot;map&quot;: &quot;white_building.tmx&quot;,
		&quot;pos&quot;: { 
			&quot;x&quot;: 102, 
			&quot;y&quot;: 7
		},
		&quot;transition&quot;: {
			&quot;type&quot;: &quot;fade&quot;,
			&quot;music&quot;: true,
			&quot;speed&quot;: 2
		}
	}
}</property>
  <property name="music" value="res/audio/music/wonderland3.ogg"/>
  <property name="music_speed" type="float" value="1"/>
  <property name="music_volume" type="float" value="1"/>
 </properties>
 <tileset firstgid="1" source="white_building.tsx"/>
 <tileset firstgid="65" source="tilesets/white_building_window.tsx"/>
 <imagelayer id="6" name="Sky">
  <image source="../textures/image/wtx_sky_scaled.png" width="296" height="160"/>
  <properties>
   <property name="delay_x" type="int" value="0"/>
   <property name="delay_y" type="int" value="0"/>
   <property name="height" type="int" value="0"/>
   <property name="looping" type="bool" value="true"/>
   <property name="parallax_x" type="int" value="2"/>
   <property name="parallax_y" type="int" value="2"/>
   <property name="scroll_x" type="int" value="0"/>
   <property name="scroll_y" type="int" value="0"/>
  </properties>
 </imagelayer>
 <layer id="1" name="Building" width="20" height="64">
  <data encoding="csv">
51,51,17,17,17,17,17,17,17,17,17,17,17,17,17,17,17,17,51,51,
51,51,17,0,0,0,0,0,0,0,0,0,0,0,0,0,0,17,51,51,
51,51,17,0,0,0,0,0,0,0,0,0,0,0,0,0,0,17,51,51,
51,51,17,0,0,0,0,0,0,0,0,0,0,0,0,0,0,17,51,51,
51,51,17,0,0,0,0,0,0,0,0,0,0,0,0,0,0,17,51,51,
51,51,17,17,17,17,17,17,17,17,17,17,17,17,17,17,17,17,51,51,
51,51,1,1,1,1,1,1,1,1,1,1,1,1,1,1,1,1,51,51,
51,51,1,1,1,1,1,1,1,1,1,1,1,1,1,1,1,1,51,51,
51,51,1,1,1,1,1,1,1,1,1,1,1,1,1,1,1,1,51,51,
51,51,1,1,1,1,1,1,1,1,1,1,1,1,1,1,1,1,51,51,
51,51,1,1,1,1,1,1,1,1,1,1,1,1,1,1,1,1,51,51,
51,51,1,1,1,1,1,1,1,1,1,1,1,1,1,1,1,1,51,51,
51,51,1,1,1,1,1,1,1,1,1,1,1,1,1,1,1,1,51,51,
51,51,1,1,1,1,1,1,1,1,1,1,1,1,1,1,1,1,51,51,
51,51,9,9,9,9,9,9,9,9,9,9,9,9,9,1,9,9,51,51,
51,51,1,1,1,1,1,1,1,1,1,1,1,1,17,1,17,1,51,51,
51,51,1,9,9,9,9,1,9,9,9,9,9,1,17,1,17,1,51,51,
51,51,9,17,17,17,17,9,17,17,17,1,17,1,17,1,17,1,51,51,
51,51,1,1,1,1,1,1,1,1,17,1,17,1,17,1,17,1,51,51,
51,51,1,9,1,9,9,9,9,1,17,1,17,1,17,1,17,1,51,51,
51,51,1,17,1,17,1,1,1,1,17,1,17,1,17,1,17,1,51,51,
51,51,1,17,1,17,1,9,9,1,17,1,17,1,17,1,17,1,51,51,
51,51,1,17,1,17,1,17,17,1,17,1,17,1,17,1,17,1,51,51,
51,51,1,17,1,17,1,1,17,1,17,1,17,1,17,1,17,1,51,51,
51,51,1,17,1,17,1,9,17,1,17,1,17,1,17,1,17,1,51,51,
51,51,1,17,9,17,1,17,17,1,17,1,17,1,17,1,17,1,51,51,
51,51,1,17,1,1,1,1,1,1,1,1,17,1,17,1,17,1,51,51,
51,51,1,17,1,9,9,9,9,9,9,9,17,1,17,1,17,1,51,51,
51,51,1,17,1,17,17,17,17,17,17,17,17,1,17,1,17,1,51,51,
51,51,1,17,1,17,1,1,1,1,1,1,1,1,17,1,17,1,51,51,
51,51,1,17,1,17,1,9,9,9,9,9,9,9,17,1,17,1,51,51,
51,51,1,17,1,17,1,17,1,1,17,1,1,1,1,1,1,1,51,51,
51,51,1,17,1,17,1,17,1,9,17,1,9,9,9,9,9,9,51,51,
51,51,1,17,1,17,1,17,1,17,17,1,17,1,1,1,1,1,51,51,
51,51,1,17,1,17,1,17,1,17,17,1,17,1,9,9,9,1,51,51,
51,51,1,17,1,17,1,17,1,17,17,1,17,1,17,17,17,1,51,51,
51,51,1,17,1,1,1,1,1,1,1,1,17,1,1,17,17,1,51,51,
51,51,1,17,9,9,9,9,9,9,9,9,17,9,9,17,17,1,51,51,
51,51,1,1,1,1,1,1,1,1,1,1,1,1,1,1,1,1,51,51,
51,51,9,9,9,9,9,9,9,9,9,9,9,9,9,9,9,1,51,51,
51,51,1,1,1,1,1,1,1,1,17,17,17,17,17,17,17,1,51,51,
51,51,1,9,9,9,1,9,9,9,17,1,1,1,1,1,1,1,51,51,
51,51,1,17,1,17,1,1,1,1,17,1,9,1,9,9,9,9,51,51,
51,51,1,17,1,17,9,9,9,1,17,1,17,1,17,1,17,1,51,51,
51,51,1,17,1,1,1,1,1,1,17,1,17,1,17,1,17,1,51,51,
51,51,1,17,9,9,9,9,9,1,17,1,17,9,17,1,17,1,51,51,
51,51,1,1,1,1,1,17,17,1,17,1,1,1,1,1,1,1,51,51,
51,51,9,9,9,9,1,17,17,1,17,1,9,9,9,9,9,1,51,51,
51,51,1,1,1,1,1,17,17,1,17,1,17,1,1,17,17,1,51,51,
51,51,1,9,9,9,9,17,17,1,17,9,17,9,1,17,17,1,51,51,
51,51,1,1,1,1,1,1,17,1,1,1,1,1,1,1,1,1,51,51,
51,51,9,9,9,9,9,1,17,9,9,9,9,9,9,9,9,9,51,51,
51,51,1,1,1,1,1,1,1,1,1,1,1,1,1,1,1,1,51,51,
51,51,1,1,1,1,1,1,1,1,1,1,1,1,1,1,1,1,51,51,
51,51,1,1,1,1,1,1,1,1,1,1,1,1,1,1,1,1,51,51,
51,51,1,1,1,1,1,1,1,1,1,1,1,1,1,1,1,1,51,51,
51,51,1,1,1,1,1,1,1,1,1,1,1,1,1,1,1,1,51,51,
51,51,1,1,1,1,1,1,1,1,1,1,1,1,1,1,1,1,51,51,
51,51,1,1,1,1,1,1,1,1,1,1,1,1,1,1,1,1,51,51,
51,51,1,1,1,1,1,1,1,1,1,1,1,1,1,1,1,1,51,51,
51,51,1,1,1,1,1,1,1,1,1,1,1,1,1,1,1,1,51,51,
51,51,1,1,1,1,1,1,1,1,1,1,1,1,1,1,1,1,51,51,
51,51,1,1,1,1,1,1,1,1,1,1,1,1,1,1,1,1,51,51,
51,51,1,1,1,1,1,1,1,1,1,1,1,1,1,1,1,1,51,51
</data>
 </layer>
 <layer id="7" name="Window" width="20" height="64">
  <properties>
   <property name="height" type="int" value="1"/>
  </properties>
  <data encoding="csv">
0,0,65,65,65,65,65,65,65,65,65,65,65,65,65,65,65,65,0,0,
0,0,65,66,67,68,69,70,71,72,73,74,75,76,77,78,79,65,0,0,
0,0,65,82,83,84,85,86,87,88,89,90,91,92,93,94,95,65,0,0,
0,0,65,98,99,100,101,102,103,104,105,106,107,108,109,110,111,65,0,0,
0,0,65,114,115,116,117,118,119,120,121,122,123,124,125,126,127,65,0,0,
0,0,65,65,65,65,65,65,65,65,65,65,65,65,65,65,65,65,0,0,
0,0,129,130,131,132,133,134,135,136,137,138,139,140,141,142,143,144,0,0,
0,0,145,146,147,148,149,150,151,152,153,154,155,156,157,158,159,65,0,0,
0,0,161,162,163,164,165,166,167,168,169,170,171,172,173,174,175,65,0,0,
0,0,177,178,179,180,181,182,183,184,185,186,187,188,189,190,191,65,0,0,
0,0,193,194,195,196,197,198,199,200,201,202,203,204,205,206,207,65,0,0,
0,0,65,65,65,65,65,65,65,65,65,65,65,65,65,65,65,65,0,0,
0,0,65,65,65,65,65,65,65,65,65,65,65,65,65,65,65,65,0,0,
0,0,65,65,65,65,65,65,65,65,65,65,65,65,65,65,65,65,0,0,
0,0,65,65,65,65,65,65,65,65,65,65,65,65,65,65,65,65,0,0,
0,0,65,65,65,65,65,65,65,65,65,65,65,65,65,65,65,65,0,0,
0,0,65,65,65,65,65,65,65,65,65,65,65,65,65,65,65,65,0,0,
0,0,65,65,65,65,65,65,65,65,65,65,65,65,65,65,65,65,0,0,
0,0,65,65,65,65,65,65,65,65,65,65,65,65,65,65,65,65,0,0,
0,0,65,65,65,65,65,65,65,65,65,65,65,65,65,65,65,65,0,0,
0,0,65,65,65,65,65,65,65,65,65,65,65,65,65,65,65,65,0,0,
0,0,65,65,65,65,65,65,65,65,65,65,65,65,65,65,65,65,0,0,
0,0,65,65,65,65,65,65,65,65,65,65,65,65,65,65,65,65,0,0,
0,0,65,65,65,65,65,65,65,65,65,65,65,65,65,65,65,65,0,0,
0,0,65,65,65,65,65,65,65,65,65,65,65,65,65,65,65,65,0,0,
0,0,65,65,65,65,65,65,65,65,65,65,65,65,65,65,65,65,0,0,
0,0,65,65,65,65,65,65,65,65,65,65,65,65,65,65,65,65,0,0,
0,0,65,65,65,65,65,65,65,65,65,65,65,65,65,65,65,65,0,0,
0,0,65,65,65,65,65,65,65,65,65,65,65,65,65,65,65,65,0,0,
0,0,65,65,65,65,65,65,65,65,65,65,65,65,65,65,65,65,0,0,
0,0,65,65,65,65,65,65,65,65,65,65,65,65,65,65,65,65,0,0,
0,0,65,65,65,65,65,65,65,65,65,65,65,65,65,65,65,65,0,0,
0,0,65,65,65,65,65,65,65,65,65,65,65,65,65,65,65,65,0,0,
0,0,65,65,65,65,65,65,65,65,65,65,65,65,65,65,65,65,0,0,
0,0,65,65,65,65,65,65,65,65,65,65,65,65,65,65,65,65,0,0,
0,0,65,65,65,65,65,65,65,65,65,65,65,65,65,65,65,65,0,0,
0,0,65,65,65,65,65,65,65,65,65,65,65,65,65,65,65,65,0,0,
0,0,65,65,65,65,65,65,65,65,65,65,65,65,65,65,65,65,0,0,
0,0,65,65,65,65,65,65,65,65,65,65,65,65,65,65,65,65,0,0,
0,0,65,65,65,65,65,65,65,65,65,65,65,65,65,65,65,65,0,0,
0,0,65,65,65,65,65,65,65,65,65,65,65,65,65,65,65,65,0,0,
0,0,65,65,65,65,65,65,65,65,65,65,65,65,65,65,65,65,0,0,
0,0,65,65,65,65,65,65,65,65,65,65,65,65,65,65,65,65,0,0,
0,0,65,65,65,65,65,65,65,65,65,65,65,65,65,65,65,65,0,0,
0,0,65,65,65,65,65,65,65,65,65,65,65,65,65,65,65,65,0,0,
0,0,65,65,65,65,65,65,65,65,65,65,65,65,65,65,65,65,0,0,
0,0,65,65,65,65,65,65,65,65,65,65,65,65,65,65,65,65,0,0,
0,0,65,65,65,65,65,65,65,65,65,65,65,65,65,65,65,65,0,0,
0,0,65,65,65,65,65,65,65,65,65,65,65,65,65,65,65,65,0,0,
0,0,65,65,65,65,65,65,65,65,65,65,65,65,65,65,65,65,0,0,
0,0,65,65,65,65,65,65,65,65,65,65,65,65,65,65,65,65,0,0,
0,0,65,65,65,65,65,65,65,65,65,65,65,65,65,65,65,65,0,0,
0,0,65,65,65,65,65,65,65,65,65,65,65,65,65,65,65,65,0,0,
0,0,65,65,65,65,65,65,65,65,65,65,65,65,65,65,65,65,0,0,
0,0,65,65,65,65,65,65,65,65,65,65,65,65,65,65,65,65,0,0,
0,0,65,65,65,65,65,65,65,65,65,65,65,65,65,65,65,65,0,0,
0,0,65,65,65,65,65,65,65,65,65,65,65,65,65,65,65,65,0,0,
0,0,65,65,65,65,65,65,65,65,65,65,65,65,65,65,65,65,0,0,
0,0,65,65,65,65,65,65,65,65,65,65,65,65,65,65,65,65,0,0,
0,0,65,65,65,65,65,65,65,65,65,65,65,65,65,65,65,65,0,0,
0,0,65,65,65,65,65,65,65,65,65,65,65,65,65,65,65,65,0,0,
0,0,65,65,65,65,65,65,65,65,65,65,65,65,65,65,65,65,0,0,
0,0,65,65,65,65,65,65,65,65,65,65,65,65,65,65,65,65,0,0,
0,0,65,65,65,65,65,65,65,65,65,65,65,65,65,65,65,65,0,0
</data>
 </layer>
 <layer id="2" name="Detail" width="20" height="64">
  <data encoding="csv">
0,0,0,0,0,0,0,0,0,0,0,0,0,0,0,0,0,0,0,0,
0,0,0,0,0,0,0,0,0,0,0,0,0,0,0,0,0,0,0,0,
0,0,0,0,0,0,0,0,0,0,0,0,0,0,0,0,0,0,0,0,
0,0,0,0,0,0,0,0,0,0,0,0,0,0,0,0,0,0,0,0,
0,0,0,0,0,0,0,0,0,0,0,0,0,0,0,0,0,0,0,0,
0,0,38,38,38,38,38,38,38,38,38,38,38,38,38,38,38,38,0,0,
0,0,0,0,0,0,0,0,0,0,0,0,0,0,0,0,0,0,0,0,
0,0,0,0,0,0,0,0,0,0,0,0,0,0,0,0,0,0,0,0,
0,0,0,0,0,0,0,0,0,0,0,0,0,0,0,0,0,0,0,0,
0,0,0,0,0,0,0,0,0,0,0,0,0,0,0,0,0,0,0,0,
0,0,0,0,0,0,0,0,0,0,0,0,0,0,0,0,0,0,0,0,
0,0,0,0,0,0,0,0,0,0,0,0,0,0,0,0,0,0,0,0,
0,0,0,0,0,0,0,0,0,0,0,0,0,0,0,0,0,0,0,0,
0,0,0,0,0,0,0,0,0,0,0,0,0,0,0,0,0,0,0,0,
0,0,38,38,38,38,38,38,38,38,38,38,38,38,0,64,0,38,0,0,
0,0,0,0,0,0,0,0,0,0,0,0,0,64,0,64,0,0,0,0,
0,0,64,0,0,0,0,64,0,0,0,38,0,64,0,64,0,0,0,0,
0,0,38,38,38,38,38,38,38,38,0,64,0,64,0,64,0,0,0,0,
0,0,0,0,0,0,0,0,0,64,0,64,0,64,0,64,0,0,0,0,
0,0,64,0,64,0,38,38,38,64,0,64,0,64,0,64,0,0,0,0,
0,0,64,0,64,0,0,0,0,64,0,64,0,64,0,64,0,0,0,0,
0,0,64,0,64,0,64,0,0,64,0,64,0,64,0,64,0,0,0,0,
0,0,64,0,64,0,64,38,0,64,0,64,0,64,0,64,0,0,0,0,
0,0,64,0,64,0,0,64,0,64,0,64,0,64,0,64,0,0,0,0,
0,0,64,0,64,0,64,0,0,64,0,64,0,64,0,64,0,0,0,0,
0,0,64,0,38,38,64,38,38,64,38,64,0,64,0,64,0,0,0,0,
0,0,64,0,0,0,0,0,0,0,0,64,0,64,0,64,0,0,0,0,
0,0,64,0,64,0,0,0,0,0,0,0,0,64,0,64,0,0,0,0,
0,0,64,0,64,0,38,38,38,38,38,38,38,64,0,64,0,0,0,0,
0,0,64,0,64,0,0,0,0,0,0,0,0,64,0,64,0,0,0,0,
0,0,64,0,64,0,64,0,38,38,0,38,38,38,38,64,0,0,0,0,
0,0,64,0,64,0,64,0,0,64,0,0,0,0,0,0,0,0,0,0,
0,0,64,0,64,0,64,0,64,0,0,64,0,38,38,38,38,38,0,0,
0,0,64,0,64,0,64,0,64,0,0,64,0,0,0,0,0,0,0,0,
0,0,64,0,64,0,64,0,64,0,0,64,0,64,0,0,0,0,0,0,
0,0,64,0,64,38,64,38,64,38,38,64,0,64,38,0,0,0,0,0,
0,0,64,0,0,0,0,0,0,0,0,64,0,0,64,0,0,0,0,0,
0,0,64,38,38,38,38,38,38,38,38,38,38,38,38,38,38,0,0,0,
0,0,0,0,0,0,0,0,0,0,0,0,0,0,0,0,0,0,0,0,
0,0,38,38,38,38,38,38,38,38,0,0,0,0,0,0,0,0,0,0,
0,0,0,0,0,0,0,0,0,64,0,38,38,38,38,38,38,0,0,0,
0,0,0,0,38,0,64,38,38,38,0,0,0,0,0,0,0,0,0,0,
0,0,0,0,64,0,0,0,0,64,0,64,0,64,0,38,0,38,0,0,
0,0,0,0,64,38,38,38,38,64,0,64,0,64,0,64,0,0,0,0,
0,0,0,0,0,0,0,0,0,64,0,64,0,64,0,64,0,0,0,0,
0,0,0,38,38,38,38,0,0,64,0,64,38,38,38,64,38,0,0,0,
0,0,0,0,0,0,64,0,0,64,0,0,0,0,0,0,0,0,0,0,
0,0,38,38,38,38,64,0,0,64,0,64,0,38,38,0,0,0,0,0,
0,0,0,0,0,0,64,0,0,64,0,64,0,0,64,0,0,0,0,0,
0,0,0,38,38,38,38,38,0,64,38,38,38,38,64,38,38,0,0,0,
0,0,0,0,0,0,0,64,0,0,0,0,0,0,0,0,0,0,0,0,
0,0,38,38,38,38,38,64,38,38,38,38,38,38,38,38,38,38,0,0,
0,0,0,0,0,0,0,0,0,0,0,0,0,0,0,0,0,0,0,0,
0,0,0,0,0,0,0,0,0,0,0,0,0,0,0,0,0,0,0,0,
0,0,0,0,0,0,0,0,0,0,0,0,0,0,0,0,0,0,0,0,
0,0,0,0,0,0,0,0,0,0,0,0,0,0,0,0,0,0,0,0,
0,0,0,0,0,0,0,0,0,0,0,0,0,0,0,0,0,0,0,0,
0,0,0,0,0,0,0,0,0,0,0,0,0,0,0,0,0,0,0,0,
0,0,0,0,0,0,0,0,0,0,0,0,0,0,0,0,0,0,0,0,
0,0,0,0,0,0,0,0,0,0,0,0,0,0,0,0,0,0,0,0,
0,0,0,0,0,0,0,0,0,0,0,0,0,0,0,0,0,0,0,0,
0,0,0,0,0,0,0,0,0,0,0,0,0,0,0,0,0,0,0,0,
0,0,0,0,0,0,0,0,0,0,0,0,0,0,0,0,0,0,0,0,
0,0,0,0,0,0,0,0,0,0,0,0,0,0,0,0,0,0,0,0
</data>
 </layer>
 <layer id="3" name="Detail2" width="20" height="64">
  <data encoding="csv">
0,0,0,0,0,0,0,0,0,0,0,0,0,0,0,0,0,0,0,0,
0,0,0,0,0,0,0,0,0,0,0,0,0,0,0,0,0,0,0,0,
0,0,0,0,0,0,0,0,0,0,0,0,0,0,0,0,0,0,0,0,
0,0,0,0,0,0,0,0,0,0,0,0,0,0,0,0,0,0,0,0,
0,0,0,0,0,0,0,0,0,0,0,0,0,0,0,0,0,0,0,0,
0,0,0,0,0,0,0,0,0,0,0,0,0,0,0,0,0,0,0,0,
0,0,63,0,0,0,0,0,0,0,0,0,0,0,0,0,0,0,0,0,
0,0,63,0,0,0,0,0,0,0,0,0,0,0,0,0,0,0,0,0,
0,0,63,0,0,0,0,0,0,0,0,0,0,0,0,0,0,0,0,0,
0,0,63,0,0,0,0,0,0,0,0,0,0,0,0,0,0,0,0,0,
0,0,63,0,0,0,0,0,0,0,0,0,0,0,0,0,0,0,0,0,
0,0,63,0,0,0,0,0,0,0,0,0,0,0,0,0,0,0,0,0,
0,0,63,0,0,0,0,0,0,0,0,0,0,0,0,0,0,0,0,0,
0,0,63,0,0,0,0,0,0,0,0,0,0,0,0,0,0,0,0,0,
0,0,0,0,0,0,0,0,0,0,0,0,0,0,0,63,0,0,0,0,
0,0,63,0,0,0,0,0,0,0,0,0,0,0,0,63,0,63,0,0,
0,0,63,0,0,0,0,63,0,0,0,0,0,63,0,63,0,63,0,0,
0,0,64,0,0,0,0,64,0,0,0,63,0,63,0,63,0,63,0,0,
0,0,63,0,0,0,0,0,0,0,0,63,0,63,0,63,0,63,0,0,
0,0,63,0,63,0,0,0,0,63,0,63,0,63,0,63,0,63,0,0,
0,0,63,0,63,0,63,0,0,0,0,63,0,63,0,63,0,63,0,0,
0,0,63,0,63,0,63,0,0,63,0,63,0,63,0,63,0,63,0,0,
0,0,63,0,63,0,63,0,0,63,0,63,0,63,0,63,0,63,0,0,
0,0,63,0,63,0,63,0,0,63,0,63,0,63,0,63,0,63,0,0,
0,0,63,0,63,0,63,0,0,63,0,63,0,63,0,63,0,63,0,0,
0,0,63,0,64,0,63,0,0,63,0,63,0,63,0,63,0,63,0,0,
0,0,63,0,63,0,0,0,0,0,0,0,0,63,0,63,0,63,0,0,
0,0,63,0,63,0,0,0,0,0,0,0,0,63,0,63,0,63,0,0,
0,0,63,0,63,0,0,0,0,0,0,0,0,63,0,63,0,63,0,0,
0,0,63,0,63,0,63,0,0,0,0,0,0,0,0,63,0,63,0,0,
0,0,63,0,63,0,63,0,0,0,0,0,0,0,0,63,0,63,0,0,
0,0,63,0,63,0,63,0,63,0,0,63,0,0,0,0,0,0,0,0,
0,0,63,0,63,0,63,0,63,0,0,63,0,0,0,0,0,0,0,0,
0,0,63,0,63,0,63,0,63,0,0,63,0,63,0,0,0,0,0,0,
0,0,63,0,63,0,63,0,63,0,0,63,0,63,0,0,0,63,0,0,
0,0,63,0,63,0,63,0,63,0,0,63,0,63,0,0,0,63,0,0,
0,0,63,0,63,0,0,0,0,0,0,0,0,63,0,0,0,63,0,0,
0,0,63,0,0,0,0,0,0,0,0,0,0,0,0,0,0,63,0,0,
0,0,63,0,0,0,0,0,0,0,0,0,0,0,0,0,0,0,0,0,
0,0,0,0,0,0,0,0,0,0,0,0,0,0,0,0,0,63,0,0,
0,0,0,0,0,0,0,0,0,0,0,0,0,0,0,0,0,63,0,0,
0,0,64,0,0,0,63,0,0,0,0,63,0,0,0,0,0,0,0,0,
0,0,64,0,63,0,63,0,0,0,0,63,0,63,0,0,0,0,0,0,
0,0,64,0,63,0,0,0,0,63,0,63,0,63,0,63,0,63,0,0,
0,0,64,0,63,0,0,0,0,0,0,63,0,63,0,63,0,63,0,0,
0,0,64,0,0,0,0,0,0,63,0,63,0,64,0,63,0,63,0,0,
0,0,0,0,0,0,0,0,0,63,0,63,0,0,0,0,0,0,0,0,
0,0,0,0,0,64,0,0,0,63,0,63,0,0,0,0,0,63,0,0,
0,0,0,0,0,0,0,0,0,63,0,63,0,63,0,0,0,63,0,0,
0,0,64,0,0,0,0,0,0,63,0,64,0,0,63,0,0,63,0,0,
0,0,0,0,0,0,0,0,0,63,0,0,0,0,0,0,0,0,0,0,
0,0,0,0,0,0,0,63,0,0,0,0,0,0,0,0,0,0,0,0,
0,0,0,0,0,0,0,0,0,0,0,0,0,0,0,0,0,0,0,0,
0,0,0,0,0,0,0,0,0,0,0,0,0,0,0,0,0,0,0,0,
0,0,0,0,0,0,0,0,0,0,0,0,0,0,0,0,0,0,0,0,
0,0,0,0,0,0,0,0,0,0,0,0,0,0,0,0,0,0,0,0,
0,0,0,0,0,0,0,0,0,0,0,0,0,0,0,0,0,0,0,0,
0,0,0,0,0,0,0,0,0,0,0,0,0,0,0,0,0,0,0,0,
0,0,0,0,0,0,0,0,0,0,0,0,0,0,0,0,0,0,0,0,
0,0,0,0,0,0,0,0,0,0,0,0,0,0,0,0,0,0,0,0,
0,0,0,0,0,0,0,0,0,0,0,0,0,0,0,0,0,0,0,0,
0,0,0,0,0,0,0,0,0,0,0,0,0,0,0,0,0,0,0,0,
0,0,0,0,0,0,0,0,0,0,0,0,0,0,0,0,0,0,0,0,
0,0,0,0,0,0,0,0,0,0,0,0,0,0,0,0,0,0,0,0
</data>
 </layer>
 <layer id="5" name="Detail3" width="20" height="64">
  <data encoding="csv">
0,0,0,0,0,0,0,0,0,0,0,0,0,0,0,0,0,0,0,0,
0,0,0,0,0,0,0,0,0,0,0,0,0,0,0,0,0,0,0,0,
0,0,0,0,0,0,0,0,0,0,0,0,0,0,0,0,0,0,0,0,
0,0,0,0,0,0,0,0,0,0,0,0,0,0,0,0,0,0,0,0,
0,0,0,0,0,0,0,0,0,0,0,0,0,0,0,0,0,0,0,0,
0,0,0,0,0,0,0,0,0,0,0,0,0,0,0,0,0,0,0,0,
0,0,0,0,0,0,0,0,0,0,0,0,0,0,0,0,0,0,0,0,
0,0,0,0,0,0,0,0,0,0,0,0,0,0,0,0,0,0,0,0,
0,0,0,0,0,0,0,0,0,0,0,0,0,0,0,0,0,0,0,0,
0,0,0,0,0,0,0,0,0,0,0,0,0,0,0,0,0,0,0,0,
0,0,0,0,0,0,0,0,0,0,0,0,0,0,0,0,0,0,0,0,
0,0,0,0,0,0,0,0,0,0,0,0,0,0,0,0,0,0,0,0,
0,0,0,0,0,0,0,0,0,0,0,0,0,0,0,0,0,0,0,0,
0,0,0,0,0,0,0,0,0,0,0,0,0,0,0,0,0,0,0,0,
0,0,63,0,0,0,0,0,0,0,0,0,0,0,0,0,0,0,0,0,
0,0,0,0,0,0,0,0,0,0,0,0,0,0,0,0,0,0,0,0,
0,0,0,0,0,0,0,0,0,0,0,0,0,0,0,0,0,0,0,0,
0,0,63,0,0,0,0,63,0,0,0,0,0,0,0,0,0,0,0,0,
0,0,0,0,0,0,0,0,0,0,0,0,0,0,0,0,0,0,0,0,
0,0,0,0,0,0,0,0,0,0,0,0,0,0,0,0,0,0,0,0,
0,0,0,0,0,0,0,0,0,0,0,0,0,0,0,0,0,0,0,0,
0,0,0,0,0,0,0,0,0,0,0,0,0,0,0,0,0,0,0,0,
0,0,0,0,0,0,0,0,0,0,0,0,0,0,0,0,0,0,0,0,
0,0,0,0,0,0,0,0,0,0,0,0,0,0,0,0,0,0,0,0,
0,0,0,0,0,0,0,64,0,0,0,0,0,0,0,0,0,0,0,0,
0,0,0,0,63,0,0,64,0,0,0,0,0,0,0,0,0,0,0,0,
0,0,0,0,0,0,0,0,0,0,0,0,0,0,0,0,0,0,0,0,
0,0,0,0,0,0,0,0,0,0,0,64,0,0,0,0,0,0,0,0,
0,0,0,0,0,0,0,0,0,0,0,64,0,0,0,0,0,0,0,0,
0,0,0,0,0,0,0,0,0,0,0,0,0,0,0,0,0,0,0,0,
0,0,0,0,0,0,0,0,0,0,0,0,0,64,0,0,0,0,0,0,
0,0,0,0,0,0,0,0,0,0,0,0,0,0,0,0,0,0,0,0,
0,0,0,0,0,0,0,0,0,64,0,0,0,0,0,0,0,0,0,0,
0,0,0,0,0,0,0,0,0,64,0,0,0,0,0,0,0,0,0,0,
0,0,0,0,0,0,0,0,0,64,0,0,0,0,0,0,0,0,0,0,
0,0,0,0,0,0,0,0,0,64,0,0,0,0,0,0,0,0,0,0,
0,0,0,0,0,0,0,0,0,0,0,0,0,0,0,0,0,0,0,0,
0,0,0,0,63,0,0,0,0,0,0,0,0,63,64,0,0,0,0,0,
0,0,0,0,0,0,0,0,0,0,0,0,0,0,0,0,0,0,0,0,
0,0,63,0,0,0,0,0,0,0,0,0,0,0,0,0,0,0,0,0,
0,0,0,0,0,0,0,0,0,0,0,0,0,0,0,0,0,0,0,0,
0,0,0,0,0,0,0,0,0,64,0,0,0,0,0,0,0,0,0,0,
0,0,0,0,0,0,0,0,0,0,0,0,0,0,0,0,0,0,0,0,
0,0,0,0,0,0,63,0,0,0,0,0,0,0,0,0,0,0,0,0,
0,0,0,0,0,0,0,0,0,0,0,0,0,0,0,0,0,0,0,0,
0,0,0,0,63,0,0,0,0,0,0,0,0,63,0,0,0,0,0,0,
0,0,0,0,0,0,0,0,0,0,0,0,0,0,0,0,0,0,0,0,
0,0,0,0,0,0,0,0,0,0,0,0,0,0,0,0,0,0,0,0,
0,0,0,0,0,0,0,0,0,0,0,0,0,0,0,0,0,0,0,0,
0,0,0,0,0,0,64,0,0,0,0,63,0,63,0,0,0,0,0,0,
0,0,0,0,0,0,0,0,0,0,0,0,0,0,0,0,0,0,0,0,
0,0,0,0,0,0,0,0,0,63,0,0,0,0,0,0,0,0,0,0,
0,0,0,0,0,0,0,0,0,0,0,0,0,0,0,0,0,0,0,0,
0,0,0,0,0,0,0,0,0,0,0,0,0,0,0,0,0,0,0,0,
0,0,0,0,0,0,0,0,0,0,0,0,0,0,0,0,0,0,0,0,
0,0,0,0,0,0,0,0,0,0,0,0,0,0,0,0,0,0,0,0,
0,0,0,0,0,0,0,0,0,0,0,0,0,0,0,0,0,0,0,0,
0,0,0,0,0,0,0,0,0,0,0,0,0,0,0,0,0,0,0,0,
0,0,0,0,0,0,0,0,0,0,0,0,0,0,0,0,0,0,0,0,
0,0,0,0,0,0,0,0,0,0,0,0,0,0,0,0,0,0,0,0,
0,0,0,0,0,0,0,0,0,0,0,0,0,0,0,0,0,0,0,0,
0,0,0,0,0,0,0,0,0,0,0,0,0,0,0,0,0,0,0,0,
0,0,0,0,0,0,0,0,0,0,0,0,0,0,0,0,0,0,0,0,
0,0,0,0,0,0,0,0,0,0,0,0,0,0,0,0,0,0,0,0
</data>
 </layer>
 <layer id="4" name="Collision" width="20" height="64" opacity="0.25">
  <properties>
   <property name="draw" type="bool" value="false"/>
  </properties>
  <data encoding="csv">
0,0,0,0,0,0,0,0,0,0,0,0,0,0,0,0,0,0,0,0,
0,0,0,0,0,0,0,0,0,0,0,0,0,0,0,0,0,0,0,0,
0,0,0,0,0,0,0,0,0,0,0,0,0,0,0,0,0,0,0,0,
0,0,0,0,0,0,0,0,0,0,0,0,0,0,0,0,0,0,0,0,
0,0,0,0,0,0,0,0,0,0,0,0,0,0,0,0,0,0,0,0,
0,6,6,6,6,6,6,6,6,6,6,6,6,6,6,6,6,6,6,0,
0,6,0,0,0,0,0,0,0,0,0,0,0,0,0,0,0,0,6,0,
0,6,0,0,0,0,0,0,0,0,0,0,0,0,0,0,0,0,6,0,
0,6,0,0,0,0,0,0,0,0,0,0,0,0,0,0,0,0,6,0,
0,6,0,0,0,0,0,0,0,0,0,0,0,0,0,0,0,0,6,0,
0,6,0,0,0,0,0,0,0,0,0,0,0,0,0,0,0,0,6,0,
0,6,0,0,0,0,0,0,0,0,0,0,0,0,0,0,0,0,6,0,
0,6,0,0,0,0,0,0,0,0,0,0,0,0,0,0,0,0,6,0,
0,6,0,0,0,0,0,0,0,0,0,0,0,0,0,0,0,0,6,0,
0,6,6,6,6,6,6,6,6,6,6,6,6,6,6,0,6,6,6,0,
0,6,0,0,0,0,0,0,0,0,0,0,0,0,6,0,6,0,6,0,
0,6,0,6,6,6,6,0,6,6,6,6,6,0,6,0,6,0,6,0,
0,6,6,6,6,6,6,6,6,6,6,0,6,0,6,0,6,0,6,0,
0,6,0,0,0,0,0,0,0,0,6,0,6,0,6,0,6,0,6,0,
0,6,0,6,0,6,6,6,6,0,6,0,6,0,6,0,6,0,6,0,
0,6,0,6,0,6,0,0,0,0,6,0,6,0,6,0,6,0,6,0,
0,6,0,6,0,6,0,6,6,0,6,0,6,0,6,0,6,0,6,0,
0,6,0,6,0,6,0,6,6,0,6,0,6,0,6,0,6,0,6,0,
0,6,0,6,0,6,0,0,6,0,6,0,6,0,6,0,6,0,6,0,
0,6,0,6,0,6,0,6,6,0,6,0,6,0,6,0,6,0,6,0,
0,6,0,6,6,6,0,6,6,0,6,0,6,0,6,0,6,0,6,0,
0,6,0,6,0,0,0,0,0,0,0,0,6,0,6,0,6,0,6,0,
0,6,0,6,0,6,6,6,6,6,6,6,6,0,6,0,6,0,6,0,
0,6,0,6,0,6,6,6,6,6,6,6,6,0,6,0,6,0,6,0,
0,6,0,6,0,6,0,0,0,0,0,0,0,0,6,0,6,0,6,0,
0,6,0,6,0,6,0,6,6,6,6,6,6,6,6,0,6,0,6,0,
0,6,0,6,0,6,0,6,0,0,6,0,0,0,0,0,0,0,6,0,
0,6,0,6,0,6,0,6,0,6,6,0,6,6,6,6,6,6,6,0,
0,6,0,6,0,6,0,6,0,6,6,0,6,0,0,0,0,0,6,0,
0,6,0,6,0,6,0,6,0,6,6,0,6,0,6,6,6,0,6,0,
0,6,0,6,0,6,0,6,0,6,6,0,6,0,6,6,6,0,6,0,
0,6,0,6,0,0,0,0,0,0,0,0,6,0,0,6,6,0,6,0,
0,6,0,6,6,6,6,6,6,6,6,6,6,6,6,6,6,0,6,0,
0,6,0,0,0,0,0,0,0,0,0,0,0,0,0,0,0,0,6,0,
0,6,6,6,6,6,6,6,6,6,6,6,6,6,6,6,6,0,6,0,
0,6,0,0,0,0,0,0,0,0,6,6,6,6,6,6,6,0,6,0,
0,6,0,6,6,6,0,6,6,6,6,0,0,0,0,0,0,0,6,0,
0,6,0,6,0,6,0,0,0,0,6,0,6,0,6,6,6,6,6,0,
0,6,0,6,0,6,6,6,6,0,6,0,6,0,6,0,6,0,6,0,
0,6,0,6,0,0,0,0,0,0,6,0,6,0,6,0,6,0,6,0,
0,6,0,6,6,6,6,6,6,0,6,0,6,6,6,0,6,0,6,0,
0,6,0,0,0,0,0,6,6,0,6,0,0,0,0,0,0,0,6,0,
0,6,6,6,6,6,0,6,6,0,6,0,6,6,6,6,6,0,6,0,
0,6,0,0,0,0,0,6,6,0,6,0,6,0,0,6,6,0,6,0,
0,6,0,6,6,6,6,6,6,0,6,6,6,6,0,6,6,0,6,0,
0,6,0,0,0,0,0,0,6,0,0,0,0,0,0,0,0,0,6,0,
0,6,6,6,6,6,6,0,6,6,6,6,6,6,6,6,6,6,6,0,
0,6,0,0,0,0,0,0,0,0,0,0,0,0,0,0,0,0,6,0,
0,6,0,0,0,0,0,0,0,0,0,0,0,0,0,0,0,0,6,0,
0,6,0,0,0,0,0,0,0,0,0,0,0,0,0,0,0,0,6,0,
0,6,0,0,0,0,0,0,0,0,0,0,0,0,0,0,0,0,6,0,
0,6,0,0,0,0,0,0,0,0,0,0,0,0,0,0,0,0,6,0,
0,6,0,0,0,0,0,0,0,0,0,0,0,0,0,0,0,0,6,0,
0,6,0,0,0,0,0,0,0,0,0,0,0,0,0,0,0,0,6,0,
0,6,0,0,0,0,0,0,0,0,0,0,0,0,0,0,0,0,6,0,
0,6,0,0,0,0,0,0,0,0,0,0,0,0,0,0,0,0,6,0,
0,6,0,0,0,0,0,0,0,0,0,0,0,0,0,0,0,0,6,0,
0,6,0,0,0,0,0,0,0,0,0,0,0,0,0,0,0,0,6,0,
0,6,0,0,0,0,0,0,0,0,0,0,0,0,0,0,0,0,6,0
</data>
 </layer>
</map>
